X: 47
T:V. El Tamborilero
M:4/4
L:1/8
Q:200
C:Trad
R:Villancico.
K:C
C4- C2D2 | E2{c}E2{c}E2{c}E2 | FEF2  E4- |  E4  C2 {G}C2 | D2  E2 {c}
 E2 {c} E2 | {c} E2  FE  F2   E2-| E6 
 D2| E2F2  G2 {c} G2 | {c} G2A2 GFE2 | D4-  D4 |
 D2E2F2  G2| {c}G2{c}G2A2 _BA | G2F2-  F2 AG | F2E2-  E2 GF | E2D2-  D4-
 | D2
C4 {G}C2 | D2  E2{c}E2{c}E2 | {c}E2  FEF2E2-| E6 DC | D2"D.C."C4 || 
"Final" AGA2G4 FEF2E4 DCD2C4

